icon-svg/bulb-group-ceiling-flush-circular.svg

<svg xmlns="http://www.w3.org/2000/svg" fill="#44739e" viewBox="0 0 24 24"><path d="M13.79 3.02c-5.15 0-9.2 2.18-9.2 5.07v.7c0 2.81 4.06 5.07 9.2 5.07s9.2-2.18 9.2-5.07v-.7c0-2.81-4.05-5.07-9.2-5.07m0 9.98c-4.6 0-8.42-1.95-8.42-4.29s3.9-4.29 8.42-4.29 8.42 2.03 8.42 4.37S18.39 13 13.79 13m0-.78c3.28 0 6.08-1.4 5.93-3.2 0-.16 0-.31-.08-.55-.31-1.48-2.81-2.57-5.93-2.57S8.46 7.09 7.87 8.2c-.24.45-.34 1.65.42 2.38 1.12 1.07 3.55 1.64 5.5 1.64m0-5.54c2.96 0 5.07 1.09 5.15 2.11-.16 1.09-2.18 2.26-5.15 2.26S8.72 9.88 8.64 8.79c.08-1.02 2.19-2.11 5.15-2.11m-5.21 8.06c-2.67 0-4.5 1.02-5 1.97-.21.38-.29 1.42.36 2.04.96.92 3.04 1.4 4.71 1.4 2.81 0 5.21-1.2 5.08-2.74 0-.13 0-.27-.07-.47-.27-1.27-2.41-2.2-5.08-2.2m.06 4.4c-2.54 0-4.34-1-4.41-1.94.07-.87 1.87-1.8 4.41-1.8s4.34.94 4.41 1.8c-.13.94-1.87 1.94-4.41 1.94m5.52-4.29c1.05.65 1.69 1.48 1.69 2.36 0 2-3.27 3.61-7.21 3.61s-7.21-1.67-7.21-3.67c0-1.78 2.63-3.29 5.93-3.61-.6-.29-1.14-.61-1.61-.97-2.94.62-4.99 2.15-4.99 4.05v.6c0 2.4 3.47 4.34 7.88 4.34s7.88-1.87 7.88-4.34v-.6c0-.67-.27-1.29-.75-1.86-.52.05-1.06.08-1.61.09"/></svg>

<?xml version="1.0" encoding="UTF-8"?>
<svg width="24px" fill="#44739e" height="24px" viewBox="0 0 24 24" version="1.1" xmlns="http://www.w3.org/2000/svg" xmlns:xlink="http://www.w3.org/1999/xlink">
            <path d="M13.79,3.02c-5.15,0-9.2,2.18-9.2,5.07v0.7c0,2.81,4.06,5.07,9.2,5.07s9.2-2.18,9.2-5.07v-0.7 C22.99,5.28,18.94,3.02,13.79,3.02z M13.79,13c-4.6,0-8.42-1.95-8.42-4.29s3.9-4.29,8.42-4.29s8.42,2.03,8.42,4.37 S18.39,13,13.79,13z M13.79,12.22c3.28,0,6.08-1.4,5.93-3.2c0-0.16,0-0.31-0.08-0.55c-0.31-1.48-2.81-2.57-5.93-2.57 S8.46,7.09,7.87,8.2c-0.24,0.45-0.34,1.65,0.42,2.38C9.41,11.65,11.84,12.22,13.79,12.22z M13.79,6.68c2.96,0,5.07,1.09,5.15,2.11 c-0.16,1.09-2.18,2.26-5.15,2.26S8.72,9.88,8.64,8.79C8.72,7.77,10.83,6.68,13.79,6.68z M8.58,14.74c-2.67,0-4.5,1.02-5,1.97c-0.21,0.38-0.29,1.42,0.36,2.04c0.96,0.92,3.04,1.4,4.71,1.4 c2.81,0,5.21-1.2,5.08-2.74c0-0.13,0-0.27-0.07-0.47C13.39,15.67,11.25,14.74,8.58,14.74z M8.64,19.14c-2.54,0-4.34-1-4.41-1.94 c0.07-0.87,1.87-1.8,4.41-1.8s4.34,0.94,4.41,1.8C12.92,18.14,11.18,19.14,8.64,19.14z M14.16,14.85c1.05,0.65,1.69,1.48,1.69,2.36c0,2-3.27,3.61-7.21,3.61c-3.94,0-7.21-1.67-7.21-3.67 c0-1.78,2.63-3.29,5.93-3.61c-0.6-0.29-1.14-0.61-1.61-0.97c-2.94,0.62-4.99,2.15-4.99,4.05v0.6c0,2.4,3.47,4.34,7.88,4.34 s7.88-1.87,7.88-4.34v-0.6c0-0.67-0.27-1.29-0.75-1.86C15.25,14.81,14.71,14.84,14.16,14.85z"/>

</svg>
